X:1
T: The Boomerang Hornpipe
C:
R:Reel
Q: 232
K:D
M:4/4
L:1/8
|:dA FA DF AF|DF BA FA d2|Ac ee ((3fgf) ec|de df ((3aba) f2|
dA FA DF AF|DF BA FA d2|Ac ee ((3fgf) ec|d2 ((3edc) d2 fg|
af df a2 a2|fg ef g2 ef|af dB Ad ((3fgf) |ed Bd A3 f1/2g1/2|
af df a2 a2|fg ef g2 ef|af dB Af ec|d2 ((3edc) d4:|
